Sources/FrostedUI/Resources/Icons.xcassets/arrowFatDown32.imageset/arrow-fat-down-32.svg

<svg width="32" height="32" viewBox="0 0 32 32" fill="none" xmlns="http://www.w3.org/2000/svg" data-fui-icon="true">
  <path
    d="M19.0009 2.91699C20.151 2.91748 21.0837 3.84987 21.0839 5V17.584H24.8798C26.0915 17.5843 26.7436 19.0067 25.953 19.9248L17.579 29.6494C16.7479 30.6144 15.2529 30.6143 14.4218 29.6494L6.04773 19.9248C5.25701 19.0066 5.90906 17.584 7.12097 17.584H10.9169V5C10.917 3.84955 11.8504 2.91699 13.0009 2.91699H19.0009ZM13.0009 4.41699C12.6788 4.41699 12.417 4.67798 12.4169 5V18.334C12.4165 18.7477 12.0807 19.0837 11.6669 19.084H7.30261L15.5585 28.6709L15.6542 28.7598C15.8932 28.9364 16.2388 28.9071 16.4423 28.6709L24.6981 19.084H20.3339C19.9199 19.084 19.5842 18.7479 19.5839 18.334V5C19.5837 4.67828 19.3225 4.41748 19.0009 4.41699H13.0009Z"
    fill="currentColor"
  />
</svg>

<svg xmlns="http://www.w3.org/2000/svg" width="32" height="32" fill="none" data-fui-icon="true" viewBox="0 0 32 32"><path fill="currentColor" d="M19 2.917c1.151 0 2.084.933 2.084 2.083v12.584h3.796c1.212 0 1.864 1.423 1.073 2.34l-8.374 9.725a2.084 2.084 0 0 1-3.157 0l-8.374-9.724c-.791-.918-.139-2.341 1.073-2.341h3.796V5c0-1.15.933-2.083 2.084-2.083zm-6 1.5a.584.584 0 0 0-.583.583v13.334c0 .414-.336.75-.75.75H7.303l8.256 9.587.095.089a.584.584 0 0 0 .788-.09l8.256-9.586h-4.364a.75.75 0 0 1-.75-.75V5A.584.584 0 0 0 19 4.417z"/></svg>
